img/social-icons/vk.svg

<svg width="36" height="36" viewBox="0 0 36 36" fill="none" xmlns="http://www.w3.org/2000/svg">
<g clip-path="url(#clip0_426_41895)">
<path d="M2 17.3333C2 10.1051 2 6.491 4.2455 4.2455C6.491 2 10.1051 2 17.3333 2H18.6666C25.8948 2 29.5089 2 31.7544 4.2455C34 6.491 34 10.1051 34 17.3333V18.6666C34 25.8948 34 29.5089 31.7544 31.7544C29.509 34 25.8949 34 18.6667 34H17.3334C10.1052 34 6.49106 34 4.24556 31.7545C2 29.509 2 25.8949 2 18.6667L2 17.3333Z" fill="#2787F5"/>
<path fill-rule="evenodd" clip-rule="evenodd" d="M10.6673 12H8.33339C7.66658 12 7.5332 12.3139 7.5332 12.6599C7.5332 13.2779 8.32445 16.3432 11.2173 20.3972C13.146 23.1659 15.8631 24.6666 18.3357 24.6666C19.8193 24.6666 20.0028 24.3333 20.0028 23.7591V21.6666C20.0028 20.9999 20.1433 20.8669 20.613 20.8669C20.9592 20.8669 21.5526 21.0399 22.9373 22.3748C24.5197 23.9569 24.7806 24.6666 25.6706 24.6666H28.0045C28.6714 24.6666 29.0048 24.3333 28.8125 23.6755C28.602 23.0199 27.8465 22.0686 26.8439 20.9411C26.2999 20.2984 25.484 19.6062 25.2367 19.2601C24.8906 18.8152 24.9895 18.6174 25.2367 18.2219C25.2367 18.2219 28.0802 14.2172 28.3769 12.8577C28.5252 12.3633 28.3769 12 27.6711 12H25.3372C24.7438 12 24.4702 12.3139 24.3218 12.6599C24.3218 12.6599 23.135 15.5521 21.4537 17.4309C20.9097 17.9747 20.6625 18.1478 20.3657 18.1478C20.2174 18.1478 20.0026 17.9747 20.0026 17.4804V12.8577C20.0026 12.2644 19.8305 12 19.3358 12H15.6683C15.2975 12 15.0745 12.2753 15.0745 12.5363C15.0745 13.0987 15.9151 13.2284 16.0018 14.8105V18.2466C16.0018 18.9999 15.8656 19.1366 15.569 19.1366C14.7778 19.1366 12.8531 16.2314 11.7117 12.9071C11.4881 12.261 11.2638 12 10.6673 12Z" fill="white"/>
</g>
<defs>
<clipPath id="clip0_426_41895">
<rect width="32" height="32" fill="white" transform="translate(2 2)"/>
</clipPath>
</defs>
</svg>

<svg width="36" height="36" fill="none" xmlns="http://www.w3.org/2000/svg"><g clip-path="url(#clip0_426_41895)"><path d="M2 17.333C2 10.105 2 6.491 4.245 4.246 6.492 2 10.105 2 17.334 2h1.334c7.228 0 10.842 0 13.087 2.245C34 6.492 34 10.105 34 17.334v1.334c0 7.228 0 10.842-2.246 13.087C29.51 34 25.894 34 18.667 34h-1.334c-7.228 0-10.842 0-13.087-2.245C2 29.509 2 25.895 2 18.666v-1.334z" fill="#2787F5"/><path fill-rule="evenodd" clip-rule="evenodd" d="M10.667 12H8.333c-.666 0-.8.314-.8.66 0 .618.791 3.683 3.684 7.737 1.929 2.769 4.646 4.27 7.119 4.27 1.483 0 1.667-.334 1.667-.908v-2.092c0-.667.14-.8.61-.8.346 0 .94.173 2.324 1.508 1.583 1.582 1.844 2.292 2.734 2.292h2.334c.666 0 1-.334.808-.992-.211-.655-.966-1.606-1.97-2.734-.543-.643-1.359-1.335-1.606-1.68-.346-.446-.247-.644 0-1.04 0 0 2.843-4.004 3.14-5.363.148-.495 0-.858-.706-.858h-2.334c-.593 0-.867.314-1.015.66 0 0-1.187 2.892-2.868 4.77-.544.545-.791.718-1.088.718-.149 0-.363-.173-.363-.668v-4.622c0-.594-.172-.858-.667-.858h-3.668c-.37 0-.593.275-.593.536 0 .563.84.692.927 2.274v3.437c0 .753-.136.89-.433.89-.791 0-2.716-2.906-3.857-6.23-.224-.646-.448-.907-1.045-.907z" fill="#fff"/></g><defs><clipPath id="clip0_426_41895"><path fill="#fff" transform="translate(2 2)" d="M0 0h32v32H0z"/></clipPath></defs></svg>
